X:1
T:Galop Nantais
G:Kazimodal
R:Galop nantais
C:Traditionnel, arrangement http://kazimodal.trad.org
L:1/8
Q:C2=90
P:(ABC)4
M:4/4
K:C
P:A
Q:C2=90
M:4/4
%%MIDI gchord fzccfzccfzccf3z
%%MIDI chordprog 0
%%MIDI bassprog 0
%%MIDI program 0
"F"AF "Dm"F/2E/2F/2G/2 "G"FE "C"E2 | "Dm"FD "G"D/2C/2D/2E/2 "Am"CE "Em"G2 |\
	"F"AF "Dm"F/2E/2F/2G/2 "G"FE "C"E2 |\
	"Dm"FD  "G"D/2C/2D/2E/2 "F"DC "C"HC2 ||
P:B
Q:C3=100
M:12/8
%%MIDI gchord f2cf2cf2cc3
%%%MIDI gchord ffff
%%MIDI program 73
"C"C |: "Dm"D3-D2 D "Em"E3-E2 E |1 "F"FFF "G"G2 F "Am"E3-"Em"E2 "C"C :|2\
	"F"FFF "G"G2 F "Am"E6 ||
P:C
M:12/8
Q:C3=160
%%MIDI gchord fzcfzcfzcfzc
%%MIDI bassprog 36
%%MIDI bassvol 127
%%MIDI program 73
|: "C"GEC "Am"GEC "F"GEC "G"GEC | "Dm"D2 D "Em"G2 G "Am"E3 C3 |\
	"C"GEC "Em"GEC "F"GEC "G"GEC | "Dm"D2 D "Em"G2 G "C"C6 :|\
%%MIDI gchordoff
	z12 ||
%%MIDI gchordon
